src/components/LandingPage/images/SocialProofLogos/airbaltic.svg

<svg xmlns="http://www.w3.org/2000/svg" width="104" height="24" fill="none" viewBox="0 0 104 24"><g clip-path="url(#clip0)" opacity=".3"><path fill="#fff" d="M16.1362 4.58864V0.555969H20.2785V4.58864H16.1362ZM16.1362 23.1715V6.16906H20.2785V23.1715H16.1362Z"/><path fill="#fff" d="M26.1564 23.1716H22.0142V6.16909H26.0445V9.32995C27.3315 7.47681 29.1787 5.84216 31.6976 5.84216C32.1459 5.84216 32.4255 5.89693 32.6494 5.95114V9.76585C32.3135 9.71109 31.6976 9.71109 31.418 9.71109C29.5145 9.71109 26.1002 11.4553 26.1002 14.8341V23.1716H26.1564Z"/><path fill="#fff" d="M33.8247 23.1715V0.555969H41.2694C43.2286 0.555969 49.8897 0.555969 49.8897 6.06009C49.8897 9.8748 46.8674 10.8556 45.2997 11.4005C47.0913 11.8364 50.4494 12.7629 50.4494 16.9594C50.4494 20.3924 47.8186 23.1715 41.8291 23.1715H33.8247ZM38.1908 9.76583H41.2694C45.244 9.76583 45.5798 7.47678 45.5798 6.71395C45.5798 3.88056 42.557 3.88056 41.6615 3.88056H38.1908V9.76583ZM38.1908 19.8475H40.9336C43.8445 19.8475 45.9156 18.9209 45.9156 16.4687C45.9156 14.8883 45.0201 13.0357 41.2137 13.0357H38.1908V19.8475Z"/><path fill="#fff" d="M62.2045 23.1715L61.7568 21.3732C60.7493 22.245 59.0697 23.5532 56.4951 23.5532C53.3603 23.5532 51.1216 21.5911 51.1216 18.8667C51.1216 17.1225 51.7932 15.052 55.5996 13.7437L60.5811 12.1091C61.309 11.8911 61.3653 11.8364 61.3653 11.3462V10.6376C61.3653 9.22094 60.0215 8.78503 58.3981 8.78503C55.6553 8.78503 53.1365 10.4197 52.129 11.0735V7.53154C53.2484 6.93189 55.3758 5.73315 59.014 5.73315C64.4438 5.73315 65.5075 8.40334 65.5075 11.6184V23.1173L62.2045 23.1715ZM57.6708 15.869C55.9355 16.4687 55.3195 17.2863 55.3195 18.485C55.3195 20.1744 56.831 20.5561 57.5588 20.5561C58.2305 20.5561 59.6856 20.3382 61.3653 18.6487V14.4523C61.1408 14.6161 61.0289 14.6703 60.3016 14.943L57.6708 15.869Z"/><path fill="#fff" d="M11.0424 23.1715L10.5946 21.3732C9.5872 22.245 7.96382 23.5532 5.33301 23.5532C2.1982 23.5532 0.0151367 21.5911 0.0151367 18.8667C0.0151367 17.1225 0.631074 15.052 4.4932 13.7437L9.53095 12.1091C10.2588 11.8911 10.3145 11.8364 10.3145 11.3462V10.6376C10.3145 9.22094 8.97126 8.78503 7.34789 8.78503C4.60514 8.78503 2.08626 10.4197 1.07882 11.0735V7.53154C2.1982 6.93189 4.32557 5.73315 7.96382 5.73315C13.3936 5.73315 14.4568 8.40334 14.4568 11.6184V23.1173L11.0424 23.1715ZM6.56432 15.869C4.82901 16.4687 4.21307 17.2863 4.21307 18.485C4.21307 20.1744 5.72451 20.5561 6.45239 20.5561C7.12401 20.5561 8.57976 20.3382 10.2588 18.6487V14.4523C10.0349 14.6161 9.92301 14.6703 9.19514 14.943L6.56432 15.869Z"/><path fill="#fff" d="M67.2422 23.1715V0.555969H71.3844V23.1715H67.2422Z"/><path fill="#fff" d="M74.9115 9.22096H72.3926V6.11486H74.9115V0.50177H79.0537V6.11486H82.188V9.22096H79.0537V17.8312C79.0537 19.0847 79.2213 20.2287 81.1248 20.2287C81.6283 20.2287 82.0203 20.1744 82.3561 20.1197V23.1716C81.7965 23.2263 81.2368 23.2805 80.397 23.2805C75.7507 23.2805 74.9115 21.0462 74.9115 18.0491V9.22096Z"/><path fill="#fff" d="M83.811 4.58865V0.50177H87.9533V4.58865H83.811ZM83.811 23.1716V6.16908H87.9533V23.1716H83.811Z"/><path fill="#fff" d="M103.123 10.7466C102.284 10.0385 100.94 9.00299 98.5893 9.00299C95.0067 9.00299 93.5515 11.8911 93.5515 14.6703C93.5515 15.869 93.8873 20.3382 98.4773 20.3382C100.884 20.3382 102.396 19.3026 103.515 18.5398V22.136C102.675 22.5724 100.772 23.4985 97.8057 23.4985C91.8719 23.4985 89.353 19.1389 89.353 14.6161C89.353 9.92901 92.0958 5.73315 97.9733 5.73315C100.828 5.73315 102.396 6.60496 103.123 6.98665V10.7466Z"/></g><defs><clipPath id="clip0"><rect width="103.5" height="23" fill="#fff" transform="translate(0.0151367 0.500122)"/></clipPath></defs></svg>

<svg fill="none" viewBox="0 0 104 24"><g clip-path="url(#clip0)" opacity=".3"><path fill="#fff" d="M16.136 4.589V.556h4.143v4.033h-4.143zm0 18.583V6.169h4.143v17.003h-4.143zm10.02 0h-4.142V6.169h4.03V9.33c1.287-1.853 3.135-3.488 5.654-3.488.448 0 .727.055.951.11v3.814c-.336-.055-.951-.055-1.231-.055-1.903 0-5.318 1.744-5.318 5.123v8.338h.056zm7.669 0V.556h7.444c1.96 0 8.62 0 8.62 5.504 0 3.815-3.022 4.796-4.59 5.34 1.792.436 5.15 1.363 5.15 5.56 0 3.432-2.63 6.212-8.62 6.212h-8.004zM38.19 9.766h3.078c3.975 0 4.31-2.29 4.31-3.052 0-2.833-3.022-2.833-3.918-2.833h-3.47v5.885zm0 10.082h2.743c2.91 0 4.982-.927 4.982-3.38 0-1.58-.896-3.432-4.702-3.432H38.19v6.812zm24.014 3.324l-.448-1.799c-1.008.872-2.687 2.18-5.262 2.18-3.135 0-5.373-1.962-5.373-4.686 0-1.745.671-3.815 4.478-5.123l4.981-1.635c.728-.218.784-.273.784-.763v-.708c0-1.417-1.343-1.853-2.967-1.853-2.743 0-5.262 1.635-6.269 2.288V7.532c1.12-.6 3.247-1.799 6.885-1.799 5.43 0 6.493 2.67 6.493 5.885v11.5l-3.303.054zm-4.534-7.303c-1.736.6-2.352 1.417-2.352 2.616 0 1.69 1.512 2.071 2.24 2.071.672 0 2.127-.218 3.806-1.907v-4.197c-.224.164-.336.218-1.063.491l-2.631.926zm-46.629 7.303l-.447-1.799c-1.008.872-2.631 2.18-5.262 2.18-3.135 0-5.318-1.962-5.318-4.686 0-1.745.616-3.815 4.478-5.123l5.038-1.635c.728-.218.784-.273.784-.763v-.708c0-1.417-1.344-1.853-2.967-1.853-2.743 0-5.262 1.635-6.27 2.288V7.532c1.12-.6 3.248-1.799 6.886-1.799 5.43 0 6.493 2.67 6.493 5.885v11.5l-3.415.054zm-4.478-7.303c-1.735.6-2.35 1.417-2.35 2.616 0 1.69 1.51 2.071 2.238 2.071.672 0 2.128-.218 3.807-1.907v-4.197c-.224.164-.336.218-1.064.491l-2.63.926zm60.678 7.303V.556h4.142v22.616h-4.142zm7.67-13.951h-2.52V6.115h2.52V.502h4.142v5.613h3.134V9.22h-3.134v8.61c0 1.254.167 2.398 2.07 2.398.504 0 .896-.055 1.232-.11v3.053c-.56.054-1.12.108-1.959.108-4.646 0-5.486-2.234-5.486-5.23V9.22zm8.899-4.632V.502h4.142v4.087H83.81zm0 18.583V6.169h4.142v17.003H83.81zm19.312-12.425c-.839-.708-2.183-1.744-4.534-1.744-3.582 0-5.037 2.888-5.037 5.667 0 1.199.335 5.668 4.925 5.668 2.407 0 3.919-1.035 5.038-1.798v3.596c-.84.436-2.743 1.363-5.71 1.363-5.933 0-8.452-4.36-8.452-8.883 0-4.687 2.743-8.883 8.62-8.883 2.855 0 4.423.872 5.15 1.254v3.76z"/></g><defs><clipPath id="clip0"><path fill="#fff" d="M0 0h103.5v23H0z" transform="translate(.015 .5)"/></clipPath></defs></svg>
